resources/svg/bag-minus-o.svg

<svg width="15" height="15" viewBox="0 0 15 15" fill="none" xmlns="http://www.w3.org/2000/svg">
<path d="M4.49998 4V3.5C4.49998 1.84315 5.84313 0.5 7.49998 0.5C9.15683 0.5 10.5 1.84315 10.5 3.5V4M4.99998 9.5H9.99998M2.40114 6.38957L1.62336 13.3896C1.55754 13.9819 2.02123 14.5 2.61724 14.5H12.3827C12.9787 14.5 13.4424 13.9819 13.3766 13.3896L12.5988 6.38957C12.5426 5.88313 12.1145 5.5 11.6049 5.5H3.39502C2.88547 5.5 2.45741 5.88314 2.40114 6.38957Z" stroke="black"/>
</svg>

<svg viewBox="0 0 15 15" fill="none" xmlns="http://www.w3.org/2000/svg" fill="currentColor"><path d="M4.5 4v-.5a3 3 0 016 0V4M5 9.5h5M2.401 6.39l-.778 7a1 1 0 00.994 1.11h9.766a1 1 0 00.994-1.11l-.778-7a1 1 0 00-.994-.89h-8.21a1 1 0 00-.994.89z" stroke="currentColor"/></svg>
